svg/system/entrance_fill.svg

<?xml version="1.0" encoding="UTF-8"?>
<svg width="24px" height="24px" viewBox="0 0 24 24" version="1.1" xmlns="http://www.w3.org/2000/svg" xmlns:xlink="http://www.w3.org/1999/xlink">
    <title>exit_fill</title>
    <g id="页面-1" stroke="none" stroke-width="1" fill="none" fill-rule="evenodd">
        <g id="System" transform="translate(-720.000000, -144.000000)" fill-rule="nonzero">
            <g id="exit_fill" transform="translate(720.000000, 144.000000)">
                 <path d="M24,0 L24,24 L0,24 L0,0 L24,0 Z M12.5934901,23.257841 L12.5819402,23.2595131 L12.5108777,23.2950439 L12.4918791,23.2987469 L12.4918791,23.2987469 L12.4767152,23.2950439 L12.4056548,23.2595131 C12.3958229,23.2563662 12.3870493,23.2590235 12.3821421,23.2649074 L12.3780323,23.275831 L12.360941,23.7031097 L12.3658947,23.7234994 L12.3769048,23.7357139 L12.4804777,23.8096931 L12.4953491,23.8136134 L12.4953491,23.8136134 L12.5071152,23.8096931 L12.6106902,23.7357139 L12.6232938,23.7196733 L12.6232938,23.7196733 L12.6266527,23.7031097 L12.609561,23.275831 C12.6075724,23.2657013 12.6010112,23.2592993 12.5934901,23.257841 L12.5934901,23.257841 Z M12.8583906,23.1452862 L12.8445485,23.1473072 L12.6598443,23.2396597 L12.6498822,23.2499052 L12.6498822,23.2499052 L12.6471943,23.2611114 L12.6650943,23.6906389 L12.6699349,23.7034178 L12.6699349,23.7034178 L12.678386,23.7104931 L12.8793402,23.8032389 C12.8914285,23.8068999 12.9022333,23.8029875 12.9078286,23.7952264 L12.9118235,23.7811639 L12.8776777,23.1665331 C12.8752882,23.1545897 12.8674102,23.1470016 12.8583906,23.1452862 L12.8583906,23.1452862 Z M12.1430473,23.1473072 C12.1332178,23.1423925 12.1221763,23.1452606 12.1156365,23.1525954 L12.1099173,23.1665331 L12.0757714,23.7811639 C12.0751323,23.7926639 12.0828099,23.8018602 12.0926481,23.8045676 L12.108256,23.8032389 L12.3092106,23.7104931 L12.3186497,23.7024347 L12.3186497,23.7024347 L12.3225043,23.6906389 L12.340401,23.2611114 L12.337245,23.2485176 L12.337245,23.2485176 L12.3277531,23.2396597 L12.1430473,23.1473072 Z" id="MingCute" fill-rule="nonzero"></path>
                <path d="M12,2.5 C12.8284,2.5 13.5,3.17157 13.5,4 C13.5,4.77969882 12.9050879,5.420449 12.1444558,5.49313345 L12,5.5 L7,5.5 C6.75454222,5.5 6.5503921,5.67687704 6.50805575,5.91012499 L6.5,6 L6.5,18 C6.5,18.2454222 6.67687704,18.4496 6.91012499,18.4919429 L7,18.5 L11.5,18.5 C12.3284,18.5 13,19.1716 13,20 C13,20.7796706 12.4050879,21.4204457 11.6444558,21.4931332 L11.5,21.5 L7,21.5 C5.13143333,21.5 3.60487333,20.0357256 3.50517885,18.1920355 L3.5,18 L3.5,6 C3.5,4.13143333 4.96427444,2.60487333 6.80796448,2.50517885 L7,2.5 L12,2.5 Z M13.9393,8.11091 C14.5251,7.52513 15.4748,7.52513 16.0606,8.11091 C16.6097875,8.66008813 16.6441117,9.52915297 16.1635727,10.118284 L16.0606,10.2322 L15.7928,10.5 L20,10.5 C20.8284,10.5 21.5,11.1716 21.5,12 C21.5,12.7796706 20.9050879,13.4204457 20.1444558,13.4931332 L20,13.5 L15.7928,13.5 L16.0606,13.7678 C16.6464,14.3536 16.6464,15.3033 16.0606,15.8891 C15.5114125,16.4382875 14.642391,16.4726117 14.0532243,15.9920727 L13.9393,15.8891 L11.1108,13.0607 C10.5617062,12.5115125 10.5273879,11.6424031 11.0078449,11.0532254 L11.1108,10.9393 L13.9393,8.11091 Z" id="形状" fill="#09244B"></path>
            </g>
        </g>
    </g>
</svg>

<svg xmlns="http://www.w3.org/2000/svg" width="24" height="24"><g fill="none" fill-rule="nonzero"><path d="M24 0v24H0V0h24ZM12.593 23.258l-.011.002-.071.035-.02.004-.014-.004-.071-.035c-.01-.004-.019-.001-.024.005l-.004.01-.017.428.005.02.01.013.104.074.015.004.012-.004.104-.074.012-.016.004-.017-.017-.427c-.002-.01-.009-.017-.017-.018Zm.265-.113-.013.002-.185.093-.01.01-.003.011.018.43.005.012.008.007.201.093c.012.004.023 0 .029-.008l.004-.014-.034-.614c-.003-.012-.01-.02-.02-.022Zm-.715.002a.023.023 0 0 0-.027.006l-.006.014-.034.614c0 .012.007.02.017.024l.015-.002.201-.093.01-.008.004-.011.017-.43-.003-.012-.01-.01-.184-.092Z"/><path fill="#09244B" d="M12 2.5a1.5 1.5 0 0 1 .144 2.993L12 5.5H7a.5.5 0 0 0-.492.41L6.5 6v12a.5.5 0 0 0 .41.492L7 18.5h4.5a1.5 1.5 0 0 1 .144 2.993l-.144.007H7a3.5 3.5 0 0 1-3.495-3.308L3.5 18V6a3.5 3.5 0 0 1 3.308-3.495L7 2.5h5Zm1.94 5.61a1.5 1.5 0 0 1 2.224 2.008l-.103.114-.268.268H20a1.5 1.5 0 0 1 .144 2.993L20 13.5h-4.207l.268.268a1.5 1.5 0 0 1-2.008 2.224l-.114-.103-2.828-2.828a1.5 1.5 0 0 1-.103-2.008l.103-.114 2.828-2.828Z"/></g></svg>
